;FLAVOR:Marlin
;TIME:1400
;Filament used: 0.535341m
;Layer height: 0.2
;MINX:-14.208
;MINY:-14.211
;MINZ:0.2
;MAXX:14.208
;MAXY:14.211
;MAXZ:39
;Generated with Cura_SteamEngine 4.4.1
M82 ;absolute extrusion mode
; Vertex Delta Start Gcode
M0 Is my nozzle clean?
M400
G28 ; Home extruder
M106 S128 ; Start fan
M104 T0 R130 ; Set cold nozzle
M109 T0 R130 ; Wait for cold nozzle
M117 Leveling bed...
G29 ; Level Bed
G1 X0 Y100 Z1 F2000
G92 Z0.9 ; Set Z position (SET Z OFFSET HERE -> 1 - OFFSET)
M107 ; Stop fan
G90 ; Absolute positioning
M82 ; Extruder in absolute mode
M104 T0 S200
G92 E0 ; Reset extruder position
M109 T0 S200
M117 Priming nozzle...
M83
G1 E20 F100 ; purge/prime nozzle
M82
G92 E0 ; Reset extruder position
G4 S3 ; Wait 3 seconds
G1 Z5 F2000
M117 Vertex Delta printing
G92 E0
G92 E0
G1 F1800 E-3
;LAYER_COUNT:195
;LAYER:0
M107
G1 F600 Z0.3
G0 F4800 X14.055 Y1.563 Z0.3
;TYPE:SKIRT
G1 F600 Z0.2
G1 F1800 E0
G1 F1200 X13.92 Y2.596 E0.03032
G1 X13.907 Y2.689 E0.03305
G1 X13.825 Y3.224 E0.0488
G1 X13.698 Y3.791 E0.06571
G1 X13.577 Y4.141 E0.07649
G1 X13.311 Y4.812 E0.0975
G1 X13.287 Y4.871 E0.09935
G1 X12.797 Y6.055 E0.13664
G1 X12.768 Y6.124 E0.13882
G1 X12.531 Y6.669 E0.15612
G1 X12.263 Y7.185 E0.17304
G1 X12.047 Y7.504 E0.18425
G1 X11.555 Y8.166 E0.20825
G1 X11.517 Y8.217 E0.2101
G1 X10.922 Y8.993 E0.23856
G1 X10.884 Y9.041 E0.24034
G1 X10.474 Y9.56 E0.25959
G1 X10.17 Y9.905 E0.27298
G1 X9.978 Y10.1 E0.28094
G1 X9.653 Y10.397 E0.29375
G1 X9.426 Y10.584 E0.30231
G1 X9.316 Y10.672 E0.30641
G1 X8.151 Y11.568 E0.34918
G1 X8.099 Y11.607 E0.35108
G1 X7.538 Y12.025 E0.37144
G1 X7.05 Y12.339 E0.38832
G1 X6.699 Y12.511 E0.3997
G1 X5.883 Y12.866 E0.4256
G1 X5.816 Y12.895 E0.42772
G1 X4.88 Y13.283 E0.45721
G1 X4.822 Y13.307 E0.45904
G1 X4.17 Y13.566 E0.47945
G1 X3.616 Y13.742 E0.49637
G1 X3.238 Y13.817 E0.50759
G1 X2.327 Y13.954 E0.5344
G1 X2.253 Y13.965 E0.53657
G1 X1.262 Y14.096 E0.56567
G1 X1.199 Y14.103 E0.56751
G1 X0.515 Y14.183 E0.58755
G1 X-0.066 Y14.211 E0.60448
G1 X-.453 Y14.185 E0.61577
G1 X-1.359 Y14.082 E0.6423
G1 X-1.434 Y14.073 E0.6445
G1 X-2.444 Y13.94 E0.67415
G1 X-2.5 Y13.932 E0.6758
G1 X-3.167 Y13.835 E0.69541
G1 X-3.735 Y13.712 E0.71233
G1 X-4.107 Y13.585 E0.72377
G1 X-4.96 Y13.249 E0.75045
G1 X-5.031 Y13.22 E0.75268
G1 X-5.942 Y12.842 E0.78138
G1 X-5.988 Y12.823 E0.78283
G1 X-6.641 Y12.543 E0.80351
G1 X-7.158 Y12.278 E0.82042
G1 X-7.493 Y12.054 E0.83214
G1 X-8.201 Y11.529 E0.8578
G1 X-9.097 Y10.841 E0.89067
G1 X-9.137 Y10.81 E0.89214
G1 X-9.658 Y10.4 E0.91144
G1 X-10.089 Y10.01 E0.92836
G1 X-10.352 Y9.71 E0.93997
G1 X-10.911 Y9.007 E0.9661
G1 X-10.956 Y8.949 E0.96824
G1 X-11.628 Y8.073 E1.00037
G1 X-11.675 Y8.01 E1.00266
G1 X-12.044 Y7.51 E1.02074
G1 X-12.357 Y7.02 E1.03767
G1 X-12.522 Y6.68 E1.04866
G1 X-12.846 Y5.932 E1.07239
G1 X-12.873 Y5.869 E1.07438
G1 X-13.229 Y5.009 E1.10147
G1 X-13.246 Y4.967 E1.10279
G1 X-13.554 Y4.2 E1.12684
G1 X-13.733 Y3.648 E1.14373
G1 X-13.81 Y3.26 E1.15524
G1 X-13.963 Y2.252 E1.18492
G1 X-13.974 Y2.172 E1.18727
G1 X-14.057 Y1.545 E1.20567
G1 X-14.063 Y1.502 E1.20694
G1 X-14.178 Y0.559 E1.23458
G1 X-14.208 Y-0.021 E1.25148
G1 X-14.183 Y-.418 E1.26306
G1 X-14.065 Y-1.482 E1.29422
G1 X-14.055 Y-1.565 E1.29665
G1 X-13.919 Y-2.602 E1.32709
G1 X-13.907 Y-2.688 E1.32961
G1 X-13.826 Y-3.221 E1.3453
G1 X-13.699 Y-3.788 E1.36221
G1 X-13.575 Y-4.147 E1.37327
G1 X-13.309 Y-4.816 E1.39422
G1 X-13.287 Y-4.871 E1.39594
G1 X-12.797 Y-6.055 E1.43324
G1 X-12.768 Y-6.124 E1.43541
G1 X-12.531 Y-6.669 E1.45271
G1 X-12.263 Y-7.185 E1.46963
G1 X-12.047 Y-7.504 E1.48084
G1 X-11.555 Y-8.166 E1.50485
G1 X-11.517 Y-8.217 E1.5067
G1 X-10.922 Y-8.993 E1.53516
G1 X-10.884 Y-9.041 E1.53694
G1 X-10.474 Y-9.56 E1.55619
G1 X-10.17 Y-9.905 E1.56957
G1 X-9.978 Y-10.1 E1.57753
G1 X-9.653 Y-10.397 E1.59035
G1 X-9.426 Y-10.584 E1.5989
G1 X-9.316 Y-10.672 E1.603
G1 X-8.151 Y-11.568 E1.64578
G1 X-8.099 Y-11.607 E1.64767
G1 X-7.538 Y-12.025 E1.66803
G1 X-7.05 Y-12.339 E1.68492
G1 X-6.699 Y-12.511 E1.69629
G1 X-5.883 Y-12.866 E1.72219
G1 X-5.815 Y-12.895 E1.72434
G1 X-4.864 Y-13.289 E1.7543
G1 X-4.807 Y-13.313 E1.7561
G1 X-4.17 Y-13.566 E1.77605
G1 X-3.616 Y-13.742 E1.79296
G1 X-3.238 Y-13.817 E1.80418
G1 X-2.327 Y-13.954 E1.83099
G1 X-2.253 Y-13.965 E1.83317
G1 X-1.262 Y-14.096 E1.86226
G1 X-1.199 Y-14.103 E1.8641
G1 X-.515 Y-14.183 E1.88414
G1 X0.066 Y-14.211 E1.90107
G1 X0.453 Y-14.185 E1.91236
G1 X1.359 Y-14.082 E1.9389
G1 X1.434 Y-14.073 E1.9411
G1 X2.444 Y-13.94 E1.97074
G1 X2.5 Y-13.932 E1.97239
G1 X3.167 Y-13.835 E1.99201
G1 X3.735 Y-13.712 E2.00892
G1 X4.107 Y-13.585 E2.02036
G1 X4.96 Y-13.249 E2.04704
G1 X5.031 Y-13.22 E2.04927
G1 X5.942 Y-12.842 E2.07798
G1 X5.988 Y-12.823 E2.07942
G1 X6.641 Y-12.543 E2.1001
G1 X7.158 Y-12.278 E2.11701
G1 X7.493 Y-12.054 E2.12874
G1 X8.201 Y-11.529 E2.15439
G1 X9.097 Y-10.841 E2.18726
G1 X9.137 Y-10.81 E2.18874
G1 X9.658 Y-10.4 E2.20803
G1 X10.089 Y-10.01 E2.22495
G1 X10.352 Y-9.71 E2.23656
G1 X10.911 Y-9.007 E2.2627
G1 X10.956 Y-8.949 E2.26483
G1 X11.628 Y-8.073 E2.29697
G1 X11.675 Y-8.01 E2.29925
G1 X12.044 Y-7.51 E2.31734
G1 X12.357 Y-7.02 E2.33426
G1 X12.522 Y-6.68 E2.34526
G1 X12.846 Y-5.932 E2.36898
G1 X12.873 Y-5.869 E2.37098
G1 X13.229 Y-5.009 E2.39806
G1 X13.246 Y-4.967 E2.39938
G1 X13.554 Y-4.2 E2.42344
G1 X13.733 Y-3.648 E2.44032
G1 X13.81 Y-3.26 E2.45184
G1 X13.963 Y-2.252 E2.48151
G1 X13.974 Y-2.172 E2.48386
G1 X14.057 Y-1.545 E2.50226
G1 X14.063 Y-1.503 E2.5035
G1 X14.178 Y-.561 E2.53112
G1 X14.208 Y0.019 E2.54802
G1 X14.183 Y0.416 E2.5596
G1 X14.065 Y1.481 E2.59078
G1 X14.055 Y1.563 E2.59318
G0 F4800 X13.708 Y1.518
G1 F1200 X13.573 Y2.551 E2.6235
G1 X13.561 Y2.636 E2.626
G1 X13.479 Y3.171 E2.64175
G1 X13.356 Y3.714 E2.65796
G1 X13.251 Y4.012 E2.66715
G1 X12.985 Y4.683 E2.68816
G1 X12.963 Y4.737 E2.68985
G1 X12.473 Y5.921 E2.72715
G1 X12.447 Y5.984 E2.72913
G1 X12.21 Y6.529 E2.74643
G1 X11.952 Y7.022 E2.76262
G1 X11.766 Y7.295 E2.77223
G1 X11.274 Y7.957 E2.79624
G1 X11.239 Y8.004 E2.79794
G1 X10.644 Y8.78 E2.8264
G1 X10.61 Y8.824 E2.82802
G1 X10.2 Y9.343 E2.84727
G1 X9.92 Y9.66 E2.85958
G1 X9.728 Y9.855 E2.86754
G1 X9.431 Y10.127 E2.87926
G1 X9.204 Y10.314 E2.88782
G1 X9.102 Y10.395 E2.89161
G1 X7.937 Y11.291 E2.93438
G1 X7.89 Y11.326 E2.93609
G1 X7.329 Y11.744 E2.95645
G1 X6.86 Y12.044 E2.97265
G1 X6.56 Y12.19 E2.98236
G1 X5.744 Y12.545 E3.00826
G1 X5.682 Y12.572 E3.01023
G1 X4.746 Y12.96 E3.03971
G1 X4.693 Y12.981 E3.04137
G1 X4.041 Y13.24 E3.06179
G1 X3.51 Y13.408 E3.078
G1 X3.186 Y13.471 E3.08761
G1 X2.275 Y13.608 E3.11442
G1 X2.207 Y13.618 E3.11642
G1 X1.216 Y13.749 E3.14551
G1 X1.158 Y13.756 E3.14721
G1 X0.474 Y13.836 E3.16725
G1 X-0.082 Y13.861 E3.18345
G1 X-.414 Y13.837 E3.19313
G1 X-1.32 Y13.734 E3.21967
G1 X-1.388 Y13.726 E3.22166
G1 X-2.398 Y13.593 E3.25131
G1 X-2.45 Y13.586 E3.25284
G1 X-3.117 Y13.489 E3.27245
G1 X-3.66 Y13.369 E3.28864
G1 X-3.979 Y13.259 E3.29846
G1 X-4.832 Y12.923 E3.32514
G1 X-4.897 Y12.897 E3.32718
G1 X-5.808 Y12.519 E3.35588
G1 X-5.85 Y12.501 E3.35721
G1 X-6.503 Y12.221 E3.37789
G1 X-6.997 Y11.966 E3.39407
G1 X-7.284 Y11.773 E3.40413
G1 X-7.992 Y11.248 E3.42978
G1 X-8.044 Y11.208 E3.43169
G1 X-8.884 Y10.563 E3.46251
G1 X-8.92 Y10.535 E3.46384
G1 X-9.441 Y10.125 E3.48314
G1 X-9.853 Y9.751 E3.49933
G1 X-10.078 Y9.492 E3.50931
G1 X-10.637 Y8.789 E3.53545
G1 X-10.679 Y8.736 E3.53742
G1 X-11.351 Y7.86 E3.56955
G1 X-11.394 Y7.802 E3.57165
G1 X-11.763 Y7.302 E3.58974
G1 X-12.06 Y6.832 E3.60592
G1 X-12.201 Y6.541 E3.61533
G1 X-12.525 Y5.793 E3.63905
G1 X-12.549 Y5.735 E3.64088
G1 X-12.905 Y4.875 E3.66797
G1 X-12.921 Y4.837 E3.66917
G1 X-13.229 Y4.07 E3.69322
G1 X-13.399 Y3.54 E3.70942
G1 X-13.464 Y3.208 E3.71927
G1 X-13.617 Y2.2 E3.74894
G1 X-13.627 Y2.127 E3.75108
G1 X-13.71 Y1.5 E3.76949
G1 X-13.716 Y1.46 E3.77067
G1 X-13.831 Y0.517 E3.79831
G1 X-13.858 Y-0.039 E3.81451
G1 X-13.835 Y-.379 E3.82443
G1 X-13.717 Y-1.443 E3.85559
G1 X-13.708 Y-1.52 E3.85784
G1 X-13.572 Y-2.557 E3.88828
G1 X-13.561 Y-2.635 E3.89057
G1 X-13.48 Y-3.168 E3.90626
G1 X-13.357 Y-3.711 E3.92246
G1 X-13.25 Y-4.018 E3.93193
G1 X-12.984 Y-4.687 E3.95288
G1 X-12.963 Y-4.737 E3.95446
G1 X-12.473 Y-5.921 E3.99175
G1 X-12.447 Y-5.984 E3.99373
G1 X-12.21 Y-6.529 E4.01103
G1 X-11.952 Y-7.022 E4.02722
G1 X-11.766 Y-7.295 E4.03683
G1 X-11.274 Y-7.957 E4.06084
G1 X-11.239 Y-8.004 E4.06254
G1 X-10.644 Y-8.78 E4.091
G1 X-10.61 Y-8.824 E4.09262
G1 X-10.2 Y-9.343 E4.11187
G1 X-9.92 Y-9.66 E4.12418
G1 X-9.728 Y-9.855 E4.13214
G1 X-9.431 Y-10.127 E4.14386
G1 X-9.204 Y-10.314 E4.15242
G1 X-9.102 Y-10.395 E4.15621
G1 X-7.937 Y-11.291 E4.19899
G1 X-7.89 Y-11.326 E4.20069
G1 X-7.329 Y-11.744 E4.22105
G1 X-6.86 Y-12.044 E4.23725
G1 X-6.56 Y-12.19 E4.24696
G1 X-5.744 Y-12.545 E4.27286
G1 X-5.681 Y-12.572 E4.27486
G1 X-4.73 Y-12.966 E4.30481
G1 X-4.677 Y-12.987 E4.30647
G1 X-4.04 Y-13.24 E4.32642
G1 X-3.51 Y-13.408 E4.3426
G1 X-3.186 Y-13.471 E4.35221
G1 X-2.275 Y-13.608 E4.37902
G1 X-2.207 Y-13.618 E4.38102
G1 X-1.216 Y-13.749 E4.41011
G1 X-1.158 Y-13.756 E4.41181
G1 X-.474 Y-13.836 E4.43185
G1 X0.082 Y-13.861 E4.44805
G1 X0.414 Y-13.837 E4.45774
G1 X1.32 Y-13.734 E4.48427
G1 X1.388 Y-13.726 E4.48627
G1 X2.398 Y-13.593 E4.51591
G1 X2.45 Y-13.586 E4.51744
G1 X3.117 Y-13.489 E4.53706
G1 X3.66 Y-13.369 E4.55324
G1 X3.979 Y-13.259 E4.56306
G1 X4.832 Y-12.923 E4.58974
G1 X4.897 Y-12.897 E4.59178
G1 X5.808 Y-12.519 E4.62048
G1 X5.85 Y-12.501 E4.62181
G1 X6.503 Y-12.221 E4.64249
G1 X6.997 Y-11.966 E4.65867
G1 X7.284 Y-11.773 E4.66873
G1 X7.992 Y-11.248 E4.69439
G1 X8.044 Y-11.208 E4.69629
G1 X8.884 Y-10.563 E4.72712
G1 X8.92 Y-10.535 E4.72844
G1 X9.441 Y-10.125 E4.74774
G1 X9.853 Y-9.751 E4.76393
G1 X10.078 Y-9.492 E4.77392
G1 X10.637 Y-8.789 E4.80005
G1 X10.679 Y-8.736 E4.80202
G1 X11.351 Y-7.86 E4.83415
G1 X11.394 Y-7.802 E4.83626
G1 X11.763 Y-7.302 E4.85434
G1 X12.06 Y-6.832 E4.87052
G1 X12.201 Y-6.541 E4.87993
G1 X12.525 Y-5.793 E4.90365
G1 X12.549 Y-5.735 E4.90548
G1 X12.905 Y-4.875 E4.93257
G1 X12.921 Y-4.837 E4.93377
G1 X13.229 Y-4.07 E4.95782
G1 X13.399 Y-3.54 E4.97402
G1 X13.464 Y-3.208 E4.98387
G1 X13.617 Y-2.2 E5.01354
G1 X13.627 Y-2.127 E5.01568
G1 X13.71 Y-1.5 E5.03409
G1 X13.715 Y-1.461 E5.03523
G1 X13.83 Y-.519 E5.06285
G1 X13.858 Y0.037 E5.07905
G1 X13.835 Y0.378 E5.089
G1 X13.717 Y1.443 E5.12018
G1 X13.708 Y1.518 E5.12238
G0 F4800 X13.361 Y1.473
G1 F1200 X13.226 Y2.506 E5.1527
G1 X13.215 Y2.583 E5.15496
G1 X13.133 Y3.118 E5.17072
G1 X12.926 Y3.883 E5.19378
G1 X12.66 Y4.554 E5.21479
G1 X12.64 Y4.603 E5.21633
G1 X12.15 Y5.787 E5.25362
G1 X12.126 Y5.845 E5.25545
G1 X11.889 Y6.39 E5.27274
G1 X11.641 Y6.859 E5.28818
G1 X11.485 Y7.087 E5.29622
G1 X10.993 Y7.749 E5.32023
G1 X10.961 Y7.791 E5.32176
G1 X10.366 Y8.567 E5.35022
G1 X10.335 Y8.607 E5.35169
G1 X9.925 Y9.126 E5.37094
G1 X9.671 Y9.414 E5.38212
G1 X9.479 Y9.609 E5.39008
G1 X9.208 Y9.857 E5.40077
G1 X8.981 Y10.044 E5.40933
G1 X8.889 Y10.117 E5.41275
G1 X7.724 Y11.013 E5.45552
G1 X7.681 Y11.046 E5.4571
G1 X7.12 Y11.464 E5.47746
G1 X6.672 Y11.748 E5.4929
G1 X6.42 Y11.869 E5.50103
G1 X5.604 Y12.224 E5.52693
G1 X5.548 Y12.248 E5.5287
G1 X4.612 Y12.636 E5.55819
G1 X4.563 Y12.656 E5.55973
G1 X3.911 Y12.915 E5.58015
G1 X3.405 Y13.073 E5.59557
G1 X3.134 Y13.125 E5.60361
G1 X2.223 Y13.262 E5.63042
G1 X2.161 Y13.271 E5.63224
G1 X1.17 Y13.402 E5.66133
G1 X1.117 Y13.408 E5.66288
G1 X0.433 Y13.488 E5.68293
G1 X-0.097 Y13.51 E5.69836
G1 X-.374 Y13.489 E5.70645
G1 X-1.28 Y13.386 E5.73298
G1 X-1.342 Y13.379 E5.7348
G1 X-2.352 Y13.246 E5.76445
G1 X-2.399 Y13.239 E5.76583
G1 X-3.066 Y13.142 E5.78545
G1 X-3.584 Y13.027 E5.80089
G1 X-3.851 Y12.934 E5.80912
G1 X-4.704 Y12.598 E5.8358
G1 X-4.763 Y12.574 E5.83765
G1 X-5.674 Y12.196 E5.86636
G1 X-5.712 Y12.18 E5.86756
G1 X-6.365 Y11.9 E5.88823
G1 X-6.836 Y11.654 E5.9037
G1 X-7.076 Y11.491 E5.91214
G1 X-7.784 Y10.966 E5.93779
G1 X-7.831 Y10.931 E5.9395
G1 X-8.671 Y10.286 E5.97032
G1 X-8.704 Y10.26 E5.97154
G1 X-9.225 Y9.85 E5.99084
G1 X-9.616 Y9.491 E6.00628
G1 X-9.804 Y9.274 E6.01464
G1 X-10.363 Y8.571 E6.04078
G1 X-10.401 Y8.523 E6.04256
G1 X-11.073 Y7.647 E6.07469
G1 X-11.112 Y7.594 E6.07661
G1 X-11.481 Y7.094 E6.09469
G1 X-11.763 Y6.645 E6.11012
G1 X-11.88 Y6.402 E6.11797
G1 X-12.204 Y5.654 E6.14169
G1 X-12.226 Y5.601 E6.14336
G1 X-12.582 Y4.741 E6.17045
G1 X-12.596 Y4.707 E6.17152
G1 X-12.904 Y3.94 E6.19558
G1 X-13.064 Y3.434 E6.21102
G1 X-13.118 Y3.155 E6.21929
G1 X-13.271 Y2.147 E6.24896
G1 X-13.281 Y2.081 E6.25091
G1 X-13.364 Y1.454 E6.26931
G1 X-13.368 Y1.418 E6.27037
G1 X-13.483 Y0.475 E6.29801
G1 X-13.507 Y-0.055 E6.31345
G1 X-13.488 Y-.341 E6.32179
G1 X-13.37 Y-1.405 E6.35295
G1 X-13.361 Y-1.474 E6.35497
G1 X-13.225 Y-2.511 E6.38541
G1 X-13.215 Y-2.583 E6.38753
G1 X-13.134 Y-3.116 E6.40322
G1 X-13.015 Y-3.633 E6.41866
G1 X-12.925 Y-3.888 E6.42653
G1 X-12.659 Y-4.557 E6.44748
G1 X-12.64 Y-4.603 E6.44893
G1 X-12.15 Y-5.787 E6.48622
G1 X-12.126 Y-5.845 E6.48805
G1 X-11.889 Y-6.39 E6.50534
G1 X-11.641 Y-6.859 E6.52078
G1 X-11.485 Y-7.087 E6.52882
G1 X-10.993 Y-7.749 E6.55283
G1 X-10.961 Y-7.791 E6.55436
G1 X-10.366 Y-8.567 E6.58282
G1 X-10.335 Y-8.607 E6.58429
G1 X-9.925 Y-9.126 E6.60354
G1 X-9.671 Y-9.414 E6.61472
G1 X-9.479 Y-9.609 E6.62268
G1 X-9.208 Y-9.857 E6.63337
G1 X-8.981 Y-10.044 E6.64193
G1 X-8.889 Y-10.117 E6.64535
G1 X-7.724 Y-11.013 E6.68812
G1 X-7.681 Y-11.046 E6.6897
G1 X-7.12 Y-11.464 E6.71006
G1 X-6.672 Y-11.748 E6.7255
G1 X-6.42 Y-11.869 E6.73363
G1 X-5.604 Y-12.224 E6.75953
G1 X-5.547 Y-12.249 E6.76134
G1 X-4.596 Y-12.643 E6.7913
G1 X-4.548 Y-12.662 E6.7928
G1 X-3.911 Y-12.915 E6.81275
G1 X-3.405 Y-13.073 E6.82818
G1 X-3.134 Y-13.125 E6.83621
G1 X-2.223 Y-13.262 E6.86302
G1 X-2.161 Y-13.271 E6.86484
G1 X-1.17 Y-13.402 E6.89393
G1 X-1.117 Y-13.408 E6.89548
G1 X-.433 Y-13.488 E6.91553
G1 X0.097 Y-13.51 E6.93096
G1 X0.374 Y-13.489 E6.93905
G1 X1.28 Y-13.386 E6.96559
G1 X1.342 Y-13.379 E6.9674
G1 X2.352 Y-13.246 E6.99705
G1 X2.399 Y-13.239 E6.99843
G1 X3.066 Y-13.142 E7.01805
G1 X3.584 Y-13.027 E7.03349
G1 X3.851 Y-12.934 E7.04172
G1 X4.704 Y-12.598 E7.0684
G1 X4.763 Y-12.574 E7.07025
G1 X5.674 Y-12.196 E7.09896
G1 X5.712 Y-12.18 E7.10016
G1 X6.365 Y-11.9 E7.12083
G1 X6.836 Y-11.654 E7.1363
G1 X7.076 Y-11.491 E7.14474
G1 X7.784 Y-10.966 E7.17039
G1 X7.831 Y-10.931 E7.1721
G1 X8.671 Y-10.286 E7.20292
G1 X8.704 Y-10.26 E7.20414
G1 X9.225 Y-9.85 E7.22344
G1 X9.616 Y-9.491 E7.23889
G1 X9.804 Y-9.274 E7.24724
G1 X10.363 Y-8.571 E7.27338
G1 X10.401 Y-8.523 E7.27516
G1 X11.073 Y-7.647 E7.30729
G1 X11.112 Y-7.594 E7.30921
G1 X11.481 Y-7.094 E7.32729
G1 X11.763 Y-6.645 E7.34272
G1 X11.88 Y-6.402 E7.35057
G1 X12.204 Y-5.654 E7.3743
G1 X12.226 Y-5.601 E7.37597
G1 X12.582 Y-4.741 E7.40305
G1 X12.596 Y-4.707 E7.40412
G1 X12.904 Y-3.94 E7.42818
G1 X13.064 Y-3.434 E7.44362
G1 X13.118 Y-3.155 E7.45189
G1 X13.271 Y-2.147 E7.48156
G1 X13.281 Y-2.081 E7.48351
G1 X13.364 Y-1.454 E7.50191
G1 X13.368 Y-1.418 E7.50297
G1 X13.483 Y-.476 E7.53059
G1 X13.507 Y0.054 E7.54603
G1 X13.488 Y0.339 E7.55434
G1 X13.37 Y1.404 E7.58552
G1 X13.361 Y1.473 E7.58755
G0 F4800 X13.014 Y1.427
G1 F1200 X12.879 Y2.46 E7.61787
G1 X12.869 Y2.53 E7.61992
G1 X12.787 Y3.065 E7.63568
G1 X12.601 Y3.754 E7.65645
G1 X12.335 Y4.425 E7.67745
G1 X12.317 Y4.469 E7.67883
G1 X11.827 Y5.653 E7.71613
G1 X11.805 Y5.705 E7.71777
G1 X11.568 Y6.25 E7.73507
G1 X11.204 Y6.878 E7.75619
G1 X10.712 Y7.54 E7.78019
G1 X10.684 Y7.578 E7.78157
G1 X10.089 Y8.354 E7.81003
G1 X10.06 Y8.39 E7.81137
G1 X9.65 Y8.909 E7.83062
G1 X9.421 Y9.169 E7.8407
G1 X9.229 Y9.364 E7.84867
G1 X8.986 Y9.587 E7.85827
G1 X8.759 Y9.774 E7.86683
G1 X8.676 Y9.84 E7.86991
G1 X7.511 Y10.736 E7.91268
G1 X7.472 Y10.765 E7.9141
G1 X6.911 Y11.183 E7.93446
G1 X6.281 Y11.548 E7.95565
G1 X5.465 Y11.903 E7.98155
G1 X5.414 Y11.925 E7.98316
G1 X4.478 Y12.313 E8.01265
G1 X4.434 Y12.331 E8.01403
G1 X3.782 Y12.59 E8.03445
G1 X3.082 Y12.779 E8.05555
G1 X2.171 Y12.916 E8.08236
G1 X2.115 Y12.924 E8.08401
G1 X1.124 Y13.055 E8.1131
G1 X1.077 Y13.061 E8.11448
G1 X0.393 Y13.141 E8.13452
G1 X-.335 Y13.142 E8.15571
G1 X-1.241 Y13.039 E8.18224
G1 X-1.297 Y13.032 E8.18389
